carriers/dpd.svg

<svg width="128" height="64" viewBox="0 0 128 64" fill="none" xmlns="http://www.w3.org/2000/svg">
<rect width="128" height="64" rx="6" fill="white"/>
<path fill-rule="evenodd" clip-rule="evenodd" d="M86.2054 33.5675C87.0149 33.3011 87.864 33.1755 88.7159 33.196C91.3016 33.196 93.0775 34.6695 93.0775 37.3069C93.0775 40.4151 91.1107 41.8268 88.4758 41.8638V45.4674H88.6783C94.1013 45.4674 97.3406 42.4831 97.3406 37.1708C97.3406 32.3415 93.8844 29.4936 88.7911 29.4936C86.4628 29.4975 84.1547 29.9255 81.9798 30.7565V51.2996H86.2054V33.5675ZM109.801 33.6045C108.988 33.2593 108.111 33.0946 107.229 33.1218C104.667 33.1218 102.966 34.6695 102.966 37.3814C102.966 40.2912 104.82 41.9383 107.782 41.9383C108.458 41.941 109.134 41.8829 109.8 41.7647L109.801 33.6045ZM114 44.749C111.917 45.2396 109.783 45.4808 107.643 45.4675C102.26 45.4675 98.7029 42.6565 98.7029 37.5175C98.7029 32.6512 102.02 29.4936 106.874 29.4936C107.872 29.4513 108.868 29.6156 109.801 29.9763V22.9044H114V44.749ZM75.4231 33.6045C74.6064 33.258 73.7241 33.0933 72.8374 33.1218C70.2893 33.1218 68.5886 34.6695 68.5886 37.3814C68.5886 40.2912 70.4281 41.9383 73.4043 41.9383C74.081 41.941 74.7567 41.8829 75.4231 41.7647V33.6045ZM79.6226 44.749C77.5395 45.2396 75.4055 45.4808 73.2654 45.4674C67.8829 45.4674 64.3254 42.6565 64.3254 37.5175C64.3254 32.6512 67.6428 29.4936 72.4961 29.4936C73.4945 29.4513 74.491 29.6156 75.423 29.9763V22.9044H79.6226L79.6226 44.749Z" fill="#424143"/>
<path fill-rule="evenodd" clip-rule="evenodd" d="M39.6202 29.739C39.5234 29.786 39.4168 29.8094 39.3091 29.8072C39.2015 29.8051 39.0959 29.7774 39.001 29.7266L38.0032 29.1442C37.9167 29.0858 37.8435 29.0098 37.7883 28.9212C37.7883 28.9196 37.788 28.918 37.7874 28.9164C37.7868 28.9149 37.7859 28.9135 37.7847 28.9124C37.7835 28.9112 37.7822 28.9103 37.7806 28.9097C37.7791 28.9091 37.7775 28.9088 37.7758 28.9088C37.7213 28.8135 37.6869 28.708 37.6746 28.5988L37.6495 27.459C37.6528 27.3522 37.6821 27.2478 37.7349 27.1549C37.7878 27.062 37.8625 26.9834 37.9526 26.926L49.9422 20.0739L33.1141 11.0766C32.9021 10.9723 32.668 10.9206 32.4318 10.9258C32.1998 10.922 31.9702 10.9737 31.7622 11.0766L14.9349 20.0739L33.7837 30.842C33.8749 30.8962 33.9515 30.972 34.0065 31.0628C34.0616 31.1536 34.0935 31.2565 34.0995 31.3625V47.0637C34.0927 47.171 34.059 47.2749 34.0016 47.3659C33.9442 47.4568 33.8649 47.5319 33.7709 47.5843L32.7604 48.1421C32.6645 48.1827 32.5614 48.2037 32.4573 48.2039H32.4318C32.3236 48.2037 32.2164 48.1827 32.116 48.1421L31.0927 47.5843C31.0004 47.5312 30.923 47.4557 30.8678 47.3646C30.8125 47.2736 30.7813 47.1701 30.7769 47.0637V33.0602C30.7702 33.0058 30.7521 32.9534 30.7238 32.9064C30.6955 32.8594 30.6576 32.8189 30.6126 32.7875L14 23.3066V41.8836C14.0114 42.1121 14.0769 42.3346 14.1911 42.5328C14.3053 42.7311 14.465 42.8993 14.6569 43.0238L31.775 52.9255C31.9783 53.0284 32.204 53.0795 32.4318 53.0742C32.6637 53.0794 32.8935 53.0284 33.1014 52.9255L50.2198 43.0238C50.4097 42.8972 50.5678 42.7284 50.6816 42.5306C50.7955 42.3328 50.8622 42.1114 50.8764 41.8836V23.3066L39.6202 29.739Z" fill="url(#paint0_linear_5_11745)"/>
<defs>
<linearGradient id="paint0_linear_5_11745" x1="95.1848" y1="-22.1624" x2="9.77302" y2="47.918" gradientUnits="userSpaceOnUse">
<stop stop-color="#A90034"/>
<stop offset="0.2" stop-color="#DC0032"/>
<stop offset="0.5" stop-color="#DC0032"/>
<stop offset="0.8" stop-color="#DC0032"/>
<stop offset="1" stop-color="#A90034"/>
</linearGradient>
</defs>
</svg>

<svg xmlns="http://www.w3.org/2000/svg" width="128" height="64" fill="none"><rect width="128" height="64" fill="#fff" rx="6"/><path fill="#424143" fill-rule="evenodd" d="M86.205 33.568a7.457 7.457 0 0 1 2.51-.372c2.587 0 4.362 1.474 4.362 4.11 0 3.11-1.966 4.52-4.601 4.558v3.603h.202c5.423 0 8.663-2.984 8.663-8.296 0-4.83-3.457-7.677-8.55-7.677a19.174 19.174 0 0 0-6.811 1.262V51.3h4.225V33.568Zm23.596.037a6.098 6.098 0 0 0-2.572-.483c-2.562 0-4.263 1.547-4.263 4.26 0 2.91 1.854 4.556 4.816 4.556.676.003 1.352-.055 2.018-.173l.001-8.16ZM114 44.748c-2.083.49-4.217.732-6.357.718-5.383 0-8.94-2.81-8.94-7.95 0-4.866 3.317-8.023 8.171-8.023a7.263 7.263 0 0 1 2.927.482v-7.072H114V44.75ZM75.423 33.604a6.117 6.117 0 0 0-2.586-.482c-2.548 0-4.248 1.547-4.248 4.26 0 2.91 1.84 4.556 4.815 4.556.677.003 1.353-.055 2.02-.173v-8.16Zm4.2 11.145c-2.084.49-4.218.732-6.358.718-5.382 0-8.94-2.81-8.94-7.95 0-4.866 3.318-8.023 8.171-8.023a7.258 7.258 0 0 1 2.927.482v-7.072h4.2V44.75Z" clip-rule="evenodd"/><path fill="url(#a)" fill-rule="evenodd" d="M39.62 29.739a.68.68 0 0 1-.619-.012l-.998-.583a.743.743 0 0 1-.222-.234l-.005-.001a.806.806 0 0 1-.101-.31l-.025-1.14a.656.656 0 0 1 .303-.533l11.99-6.852-16.829-8.997a1.472 1.472 0 0 0-.682-.151 1.456 1.456 0 0 0-.67.15l-16.827 8.998 18.849 10.768a.647.647 0 0 1 .316.52v15.702a.643.643 0 0 1-.33.52l-1.01.558a.781.781 0 0 1-.303.062h-.025a.847.847 0 0 1-.316-.062l-1.023-.558a.63.63 0 0 1-.316-.52V33.06a.39.39 0 0 0-.164-.273L14 23.308v18.577a1.445 1.445 0 0 0 .657 1.14l17.118 9.901c.203.103.429.155.657.15.232.004.462-.047.67-.15l17.118-9.901a1.48 1.48 0 0 0 .656-1.14V23.307L39.62 29.739Z" clip-rule="evenodd"/><defs><linearGradient id="a" x1="95.185" x2="9.773" y1="-22.162" y2="47.918" gradientUnits="userSpaceOnUse"><stop stop-color="#A90034"/><stop offset=".2" stop-color="#DC0032"/><stop offset=".5" stop-color="#DC0032"/><stop offset=".8" stop-color="#DC0032"/><stop offset="1" stop-color="#A90034"/></linearGradient></defs></svg>
